X: 31841
T: Paudy Scully's
R: slide
M: 12/8
K: Gmajor
|:ge|d2B BAB g2e f2e|d2B BAB e3 efe|
d2B BAB g2e f2e|d2B ABA G3 G:|
|:zg|f2a e2g f2a efe|d2B BAB e3 e2g|
f2a e2g f2a efe|d2B ABA G3 G:|

